static/fa/svgs/solid/eye.svg

<svg xmlns="http://www.w3.org/2000/svg" viewBox="0 0 576 512"><!--! Font Awesome Free 6.1.1 by @fontawesome - https://fontawesome.com License - https://fontawesome.com/license/free (Icons: CC BY 4.0, Fonts: SIL OFL 1.1, Code: MIT License) Copyright 2022 Fonticons, Inc.--><path d="M279.6 160.4c2.8-.3 5.6-.4 8.4-.4 53 0 96 42.1 96 96 0 53-43 96-96 96-53.9 0-96-43-96-96 0-2.8.1-5.6.4-8.4 9.3 4.5 20.1 8.4 31.6 8.4 35.3 0 64-28.7 64-64 0-11.5-3.9-22.3-8.4-31.6zm201-47.8c46.8 43.4 78.1 94.5 92.9 131.1 3.3 7.9 3.3 16.7 0 24.6-14.8 35.7-46.1 86.8-92.9 131.1C433.5 443.2 368.8 480 288 480s-145.5-36.8-192.58-80.6C48.62 355.1 17.34 304 2.461 268.3a31.967 31.967 0 0 1 0-24.6C17.34 207.1 48.62 156 95.42 112.6 142.5 68.84 207.2 32 288 32c80.8 0 145.5 36.84 192.6 80.6zM288 112c-79.5 0-144 64.5-144 144s64.5 144 144 144 144-64.5 144-144-64.5-144-144-144z"/></svg>

<svg xmlns="http://www.w3.org/2000/svg" viewBox="0 0 576 512"><!--! Font Awesome Free 6.1.1 by @fontawesome - https://fontawesome.com License - https://fontawesome.com/license/free (Icons: CC BY 4.0, Fonts: SIL OFL 1.1, Code: MIT License) Copyright 2022 Fonticons, Inc. --><path d="M279.6 160.4C282.4 160.1 285.2 160 288 160C341 160 384 202.1 384 256C384 309 341 352 288 352C234.1 352 192 309 192 256C192 253.2 192.1 250.4 192.4 247.6C201.7 252.1 212.5 256 224 256C259.3 256 288 227.3 288 192C288 180.5 284.1 169.7 279.6 160.4zM480.6 112.6C527.4 156 558.7 207.1 573.5 243.7C576.8 251.6 576.8 260.4 573.5 268.3C558.7 304 527.4 355.1 480.6 399.4C433.5 443.2 368.8 480 288 480C207.2 480 142.5 443.2 95.42 399.4C48.62 355.1 17.34 304 2.461 268.3C-.8205 260.4-.8205 251.6 2.461 243.7C17.34 207.1 48.62 156 95.42 112.6C142.5 68.84 207.2 32 288 32C368.8 32 433.5 68.84 480.6 112.6V112.6zM288 112C208.5 112 144 176.5 144 256C144 335.5 208.5 400 288 400C367.5 400 432 335.5 432 256C432 176.5 367.5 112 288 112z"/></svg>
